src/android-folder.svg

<?xml version="1.0" encoding="utf-8"?>
<!-- Generated by IcoMoon.io -->
<!DOCTYPE svg PUBLIC "-//W3C//DTD SVG 1.1//EN" "http://www.w3.org/Graphics/SVG/1.1/DTD/svg11.dtd">
<svg version="1.1" xmlns="http://www.w3.org/2000/svg" xmlns:xlink="http://www.w3.org/1999/xlink" width="512" height="512" viewBox="0 0 512 512">
<path fill="#000000" d="M213.338 96h-138.672c-23.469 0-42.666 19.198-42.666 42.667v234.666c0 23.469 19.197 42.667 42.666 42.667h362.668c23.469 0 42.666-19.198 42.666-42.667v-186.666c0-23.469-19.197-42.667-42.666-42.667h-181.328l-42.668-48z"></path>
</svg>

<?xml version="1.0" encoding="utf-8"?>
<!-- Generator: Adobe Illustrator 16.2.1, SVG Export Plug-In . SVG Version: 6.00 Build 0)  -->
<!DOCTYPE svg PUBLIC "-//W3C//DTD SVG 1.1//EN" "http://www.w3.org/Graphics/SVG/1.1/DTD/svg11.dtd">
<svg version="1.1" id="Layer_1" xmlns="http://www.w3.org/2000/svg" xmlns:xlink="http://www.w3.org/1999/xlink" x="0px" y="0px"
	 width="512px" height="512px" viewBox="0 0 512 512" enable-background="new 0 0 512 512" xml:space="preserve">
<g id="Icon_10_">
	<g>
		<g>
			<path d="M213.338,96H74.666C51.197,96,32,115.198,32,138.667v234.666C32,396.802,51.197,416,74.666,416h362.668
				C460.803,416,480,396.802,480,373.333V186.667C480,163.198,460.803,144,437.334,144H256.006L213.338,96z"/>
		</g>
	</g>
</g>
</svg>
